!!!OTL: Der heimkehrende Braeutigam 'Zottelbock, wo gehst du hin?'
!!!ARE: Europa, Osteuropa, Tschechoslowakei, Sudetenland, Schoenhengstgau
!!!ARD: Europa%Osteuropa%Ceska Republika@Sudetenland#Schoenhengstgau#
!!!ARL: 49.83/16.66#
!!!YOR: 5, S. 144
!!    1938 gedruckt in Kassel
!!!SCT: Q1102G
!!!YEM: Copyright 1995, estate of Helmut Schaffrath.
**kern
*ICvox
*Ivox
*M4/4
*k[f#]
*G:
=1
{4.dd
8cc
4.b
8cc
=2
4.dd
8ee
4dd
4r}
=3
{4.dd
8cc
4.b
8cc
=4
4.dd
8ee
4dd
4r}
=5
{4.dd
8cc
4.b
8cc
=6
4.dd
8cc
4.b}
{8cc
=7
4.dd
8cc
4.b
8cc
=8
4.dd
8cc
4b
4r}
==
!!!AGN: Kinder - Lied
!! Melodievergleich zu Q0102F, anderes Lied.
!!!ONB: ESAC (Essen Associative Code) Database: BALLADE
!!!AMT: simple quadruple
!!!AIN: vox
!!!EED: Helmut Schaffrath
!!!EEV: 1.0
*-
!!!title: @{OTL} [@{SCT}]
